X:1
T: The Golden Pheasant
C:
R:Jig
Q:180
K:Bb
M:6/8
L:1/16
DE|F4B2 F4B2|F4B2 d4B2|F4c2 e4d2|d2c2B2 c4F2|
F4B2 F4B2|F4B2 d4e2|f4B2 g4B2|B2c2A2 B4|
|:B2|A4c2 c4f2|B4d2 d4f2|c4f2 f4a2|g2f2=e2 f4c2|
A4c2 c4f2|B4d2 d4f2|c4f2 d4b2|a2g2=e2 f4_e2|
d4c2 B4e2|d4c2 B4F2|G4B2 F4f2|f2e2d2 c4e2|
d2e2c2 B4e2|d2e2c2 B4b2|f4b2 g2b2e2|d2e2c2 B4:|
